X:1
T:Title
%%score { 1 | 2 }
L:1/8
Q:1/4=100
M:4/4
K:Bb
V:1 treble nm="Grand Piano"
V:2 bass 
V:1
 [DF]2 [DF]>[EG] [DF]2 [B,D]>[CE] | [DF]2 [DB]>[Ec] [DB]2 [FB]2 | [Gc][GB]GB F2 Bc | d2 cB c4 | %4
w: W.~H.~Doane * * * * *||||
 [DF]2 [DF]>[EG] [DF]2 [DB]>[Ec] | [Fd]2 [Fd]>[Fd] [Fd]2 [FB]2 | [Gc][GB]GB F2 [FB][Fd] | %7
w: |||
 c2 BA [DB]4 | c2 c>d e3 e | [Fd]2 [Fd]>[=E_d] [F=d]4 | [Fd]3 [EFc] [DFB][B,DF][F,B,D][B,DF] | %11
w: ||||
 [B,FB]2 [Fd]2 [Fc]4 | [DF]2 [DF]>[EG] [DF]2 [DB]>[Ec] | [Fd]2 [Fd]>[Fd] [Fd]2 [FB]2 | %14
w: |||
 [Gc][GB]GB F2 [FB][Fd] |[M:8/4] c2 BA [DB]4 z8 |] %16
w: ||
V:2
 [B,,B,]2 [B,,B,]>[B,,B,] [B,,B,]2 [B,,F,]>[B,,F,] | [B,,B,]2 [B,,B,]>[B,,B,] [B,,B,]2 [D,B,]2 | %2
 [E,B,][E,B,][E,B,E][G,B,E] [B,D]2 [G,B,D][G,B,=E] | [F,B,F]2 [F,A,F][F,G,F] [F,A,F]4 | %4
 [B,,B,]2 [B,,B,]>[B,,B,] [B,,B,]2 [B,,B,]>[B,,B,] | [B,,B,]2 [B,,B,]>[B,,B,] [B,,B,]2 [D,B,]2 | %6
 [E,B,][E,B,][E,B,E][G,B,E] [B,D]2 [D,B,][B,,B,] | [F,A,E]2 [F,B,D][F,CE] [B,,B,]4 | %8
 [F,A,F]2 [F,A,F]>[F,B,F] [F,CF]3 [F,CF] | [B,,B,]2 [B,,B,]>[B,,B,] [B,,B,]4 | %10
 [B,,B,]3 B,, B,,B,,B,,B,, | D,2 [B,,B,]2 [F,A,]4 | %12
 [B,,B,]2 [B,,B,]>[B,,B,] [B,,B,]2 [B,,B,]>[B,,B,] | [B,,B,]2 [B,,B,]>[B,,B,] [B,,B,]2 [D,B,]2 | %14
 [E,B,][E,B,][E,B,E][G,B,E] [B,D]2 [D,B,][B,,B,] |[M:8/4] [F,A,E]2 [F,B,D][F,CE] [B,,B,]4 z8 |] %16

